X:22
T:Chanteuse,La. RHu.022
S:R.Hughes MS,1823,Whitchurch,Shrops.
N:Looks like “Le Chanteuse” in MS
A:Whitchurch, Shropshire
Z:Neil Brookes 2006
M:4/4
L:1/8
Q:1/4=100
R:Country Dance
K:C
c>ded cBAG|FG A/G/F/E/ Ddde|c>ded cBAG|cA G/A/G/F/ “EC in MS”ECC::!
F|EFGA BdAd|FG A/G/F/E/ Ddde|c>ded cBAG|ge d/c/d/f/ “ec in MS”ecc:|

